Yaru++/apps/scalable/sessione-di-login.svg

<svg fill="none" height="256" viewBox="0 0 256 256" width="256" xmlns="http://www.w3.org/2000/svg" xmlns:xlink="http://www.w3.org/1999/xlink">
  <linearGradient id="paint0_linear" gradientUnits="userSpaceOnUse" x1="29.8835" x2="229.884" y1="23.1748" y2="223.175">
    <stop offset="0" stop-opacity=".588235"/>
    <stop offset="1" stop-opacity=".205556"/>
  </linearGradient>
  <linearGradient id="paint1_linear" gradientUnits="userSpaceOnUse" x1="129.881" x2="129.881" y1="15.1741" y2="239.174">
    <stop offset="0" stop-color="#2b898f"/>
    <stop offset="1" stop-color="#5bdbc1"/>
  </linearGradient>
  <path d="m56.8051 16.1744c-35.2967 0-39.0946 3.6255-38.9216 38.9936v73.006 73.007c-.173 35.368 3.6249 38.993 38.9216 38.993h146.1569c35.297 0 39.89-3.638 38.922-38.993v-73.007-73.006c0-35.3686-3.625-38.9936-38.922-38.9936z" fill="#000" opacity=".1"/>
  <path d="m56.8051 16.1748c-35.2967 0-39.0946 3.6254-38.9216 38.9935v73.0067 73.006c-.173 35.368 3.6249 38.994 38.9216 38.994h146.1569c35.297 0 39.89-3.638 38.922-38.994v-73.006-73.0067c0-35.3685-3.625-38.9935-38.922-38.9935z" fill="url(#paint0_linear)" opacity=".3"/>
  <path d="m55.6951 13.1744c-36.0988 0-39.983 3.6902-39.8061 39.6899v74.3097 74.311c-.1769 35.999 3.7073 39.689 39.8061 39.689h148.3869c36.099 0 40.775-3.702 39.807-39.689v-74.311-74.3097c0-36.0001-3.708-39.6899-39.807-39.6899z" fill="#000" opacity=".1"/>
  <path d="m202.956 15.1744c35.297 0 39.095 3.6255 38.922 38.9936v73.006 73.007c.173 35.368-3.625 38.993-38.922 38.993h-146.1563c-35.2967 0-38.9216-3.625-38.9216-38.993v-73.007-73.006c0-35.3686 3.6249-38.9936 38.9216-38.9936z" fill="url(#paint1_linear)"/>
  <path d="m17.8777 127.175v8 65.006c0 35.368 3.6251 38.994 38.9218 38.994h146.1565c35.297 0 39.095-3.626 38.922-38.994v-65.006-8z" fill="#fff" opacity=".05"/>
  <path d="m200.493 57.0062s-21.743-.609-43.474 10.265c-6.642 3.019-13.888 7.85-19.926 13.888-9.764 9.764-24.932 27.7388-36.875 42.2668h-26.526l-12.076 18.115 20.481 5.537c.061.73.254 1.763.821 3.158l-3.182 6.998s-1.207 2.415 7.85 12.076c9.661 9.667 12.68 8.454 12.68 8.454l7.505-3.406c1.124.35 1.957.471 2.5.471l5.694 21.049 18.115-12.076v-27.335c14.63-11.829 32.582-26.695 42.267-36.066 6.038-6.038 10.869-13.284 14.485-19.926 10.259-21.7308 9.661-43.4688 9.661-43.4688zm-42.267 54.3438c-6.648 0-12.076-5.434-12.076-12.0758 0-6.648 5.428-12.077 12.076-12.077 6.642 0 12.077 5.429 12.077 12.077 0 6.6418-5.441 12.0758-12.077 12.0758zm-63.4 72.458c1.207.61 1.811 1.208 3.019 1.811-1.208 1.208-2.416 3.019-3.629 4.227-13.894 13.888-38.638 12.076-38.638 12.076s-1.812-24.762 12.076-38.638c1.208-1.213 3.019-2.409 4.227-3.629.603 1.208 1.201 1.812 1.811 3.019-9.057 11.467-7.85 28.984-7.85 28.984s17.505 1.207 28.984-7.85z" fill="#000" opacity=".1"/>
  <path d="m200.493 55.2399s-21.743-.609-43.474 10.265c-6.642 3.019-13.888 7.85-19.926 13.888-9.764 9.764-24.932 27.7391-36.875 42.2671h-26.526l-12.076 18.115 20.481 5.537c.061.73.254 1.763.821 3.158l-3.182 6.998s-1.207 2.415 7.85 12.076c9.661 9.667 12.68 8.454 12.68 8.454l7.505-3.406c1.124.35 1.957.471 2.5.471l5.694 21.049 18.115-12.076v-27.335c14.63-11.829 32.582-26.695 42.267-36.066 6.038-6.038 10.869-13.284 14.485-19.9261 10.259-21.731 9.661-43.469 9.661-43.469zm-42.267 54.3441c-6.648 0-12.076-5.434-12.076-12.0761 0-6.648 5.428-12.077 12.076-12.077 6.642 0 12.077 5.429 12.077 12.077 0 6.6421-5.441 12.0761-12.077 12.0761zm-63.4 72.458c1.207.61 1.811 1.208 3.019 1.811-1.208 1.208-2.416 3.019-3.629 4.227-13.894 13.888-38.638 12.076-38.638 12.076s-1.812-24.762 12.076-38.638c1.208-1.213 3.019-2.409 4.227-3.629.603 1.208 1.201 1.812 1.811 3.019-9.057 11.467-7.85 28.984-7.85 28.984s17.505 1.207 28.984-7.85z" fill="#fff"/>
  <path d="m56.8054 15.1744c-35.2967 0-39.0949 3.6261-38.9219 38.9942v2c-.173-35.3681 3.6252-38.9942 38.9219-38.9942h146.1566c35.296 0 38.922 3.6256 38.922 38.9942v-2c0-35.3686-3.626-38.9942-38.922-38.9942z" fill="#fff" opacity=".3"/>
  <path d="m56.8108 239.174c-35.2967 0-39.0949-3.626-38.9219-38.994v-2c-.173 35.368 3.6252 38.994 38.9219 38.994h146.1562c35.297 0 38.922-3.625 38.922-38.994v2c0 35.369-3.625 38.994-38.922 38.994z" fill="#000" opacity=".2"/>
</svg>

<svg width="256" height="256" viewBox="0 0 256 256" fill="none" xmlns="http://www.w3.org/2000/svg">
<path opacity="0.1" d="M56.8051 16.1744C21.5084 16.1744 17.7105 19.7999 17.8835 55.168V128.174V201.181C17.7105 236.549 21.5084 240.174 56.8051 240.174H202.962C238.259 240.174 242.852 236.536 241.884 201.181V128.174V55.168C241.884 19.7994 238.259 16.1744 202.962 16.1744H56.8051Z" fill="black"/>
<path opacity="0.3" d="M56.8051 16.1748C21.5084 16.1748 17.7105 19.8002 17.8835 55.1683V128.175V201.181C17.7105 236.549 21.5084 240.175 56.8051 240.175H202.962C238.259 240.175 242.852 236.537 241.884 201.181V128.175V55.1683C241.884 19.7998 238.259 16.1748 202.962 16.1748H56.8051Z" fill="url(#paint0_linear)"/>
<path opacity="0.1" d="M55.6951 13.1744C19.5963 13.1744 15.7121 16.8646 15.889 52.8643V127.174V201.485C15.7121 237.484 19.5963 241.174 55.6951 241.174H204.082C240.181 241.174 244.857 237.472 243.889 201.485V127.174V52.8643C243.889 16.8642 240.181 13.1744 204.082 13.1744H55.6951Z" fill="black"/>
<path d="M202.956 15.1744C238.253 15.1744 242.051 18.7999 241.878 54.168V127.174V200.181C242.051 235.549 238.253 239.174 202.956 239.174H56.7997C21.503 239.174 17.8781 235.549 17.8781 200.181V127.174V54.168C17.8781 18.7994 21.503 15.1744 56.7997 15.1744H202.956Z" fill="url(#paint1_linear)"/>
<path opacity="0.05" d="M17.8777 127.175V135.175V200.181C17.8777 235.549 21.5028 239.175 56.7995 239.175H202.956C238.253 239.175 242.051 235.549 241.878 200.181V135.175V127.175H17.8777Z" fill="white"/>
<path opacity="0.1" d="M200.493 57.0062C200.493 57.0062 178.75 56.3972 157.019 67.2712C150.377 70.2902 143.131 75.1212 137.093 81.1592C127.329 90.9232 112.161 108.898 100.218 123.426H73.692L61.616 141.541L82.097 147.078C82.158 147.808 82.351 148.841 82.918 150.236L79.736 157.234C79.736 157.234 78.529 159.649 87.586 169.31C97.247 178.977 100.266 177.764 100.266 177.764L107.771 174.358C108.895 174.708 109.728 174.829 110.271 174.829L115.965 195.878L134.08 183.802V156.467C148.71 144.638 166.662 129.772 176.347 120.401C182.385 114.363 187.216 107.117 190.832 100.475C201.091 78.7442 200.493 57.0062 200.493 57.0062ZM158.226 111.35C151.578 111.35 146.15 105.916 146.15 99.2742C146.15 92.6262 151.578 87.1972 158.226 87.1972C164.868 87.1972 170.303 92.6262 170.303 99.2742C170.303 105.916 164.862 111.35 158.226 111.35ZM94.826 183.808C96.033 184.418 96.637 185.016 97.845 185.619C96.637 186.827 95.429 188.638 94.216 189.846C80.322 203.734 55.578 201.922 55.578 201.922C55.578 201.922 53.766 177.16 67.654 163.284C68.862 162.071 70.673 160.875 71.881 159.655C72.484 160.863 73.082 161.467 73.692 162.674C64.635 174.141 65.842 191.658 65.842 191.658C65.842 191.658 83.347 192.865 94.826 183.808Z" fill="black"/>
<path d="M200.493 55.2399C200.493 55.2399 178.75 54.6309 157.019 65.5049C150.377 68.5239 143.131 73.3549 137.093 79.3929C127.329 89.1569 112.161 107.132 100.218 121.66H73.692L61.616 139.775L82.097 145.312C82.158 146.042 82.351 147.075 82.918 148.47L79.736 155.468C79.736 155.468 78.529 157.883 87.586 167.544C97.247 177.211 100.266 175.998 100.266 175.998L107.771 172.592C108.895 172.942 109.728 173.063 110.271 173.063L115.965 194.112L134.08 182.036V154.701C148.71 142.872 166.662 128.006 176.347 118.635C182.385 112.597 187.216 105.351 190.832 98.7089C201.091 76.9779 200.493 55.2399 200.493 55.2399ZM158.226 109.584C151.578 109.584 146.15 104.15 146.15 97.5079C146.15 90.8599 151.578 85.4309 158.226 85.4309C164.868 85.4309 170.303 90.8599 170.303 97.5079C170.303 104.15 164.862 109.584 158.226 109.584ZM94.826 182.042C96.033 182.652 96.637 183.25 97.845 183.853C96.637 185.061 95.429 186.872 94.216 188.08C80.322 201.968 55.578 200.156 55.578 200.156C55.578 200.156 53.766 175.394 67.654 161.518C68.862 160.305 70.673 159.109 71.881 157.889C72.484 159.097 73.082 159.701 73.692 160.908C64.635 172.375 65.842 189.892 65.842 189.892C65.842 189.892 83.347 191.099 94.826 182.042Z" fill="white"/>
<path opacity="0.3" d="M56.8054 15.1744C21.5087 15.1744 17.7105 18.8005 17.8835 54.1686V56.1686C17.7105 20.8005 21.5087 17.1744 56.8054 17.1744H202.962C238.258 17.1744 241.884 20.8 241.884 56.1686V54.1686C241.884 18.8 238.258 15.1744 202.962 15.1744H56.8054Z" fill="white"/>
<path opacity="0.2" d="M56.8108 239.174C21.5141 239.174 17.7159 235.548 17.8889 200.18V198.18C17.7159 233.548 21.5141 237.174 56.8108 237.174H202.967C238.264 237.174 241.889 233.549 241.889 198.18V200.18C241.889 235.549 238.264 239.174 202.967 239.174H56.8108Z" fill="black"/>
<defs>
<linearGradient id="paint0_linear" x1="29.8835" y1="23.1748" x2="229.884" y2="223.175" gradientUnits="userSpaceOnUse">
<stop stop-opacity="0.588235"/>
<stop offset="1" stop-opacity="0.205556"/>
</linearGradient>
<linearGradient id="paint1_linear" x1="129.881" y1="15.1741" x2="129.881" y2="239.174" gradientUnits="userSpaceOnUse">
<stop stop-color="#2B898F"/>
<stop offset="1" stop-color="#5BDBC1"/>
</linearGradient>
</defs>
</svg>
